X: 1
T: Sicilian Circle  [D]
M: 6/8
L: 1/8
N: Jig-time version of Rickett's Hornpipe
S: Ford "Traditional Music in America" (1940)
Z: AK/Fiddler's Companion
K: D
(3A/B/c/ |\
"D"dcd Adf | "Em"e^de "A7"Ace | "D"fba "Em"gfe | "G"dcB "A7"ABc | "D"dcd Adf |
"Em"e^de Beg | "D"fba "A7"gfe | "D"dAf d2 :: f/g/ | "D"a^ga dfa | "G"b^ab dgb |
"G"bag "D"fed | "A7"cBA gfe | "D"dcd  Adf | "Em"e^de Beg | "D"fba "A7"gfe | "D"dAf d2 :|
